src/assets/Imgs/light/vault/signer.svg

<svg fill="none" height="54" viewBox="0 0 54 54" width="54" xmlns="http://www.w3.org/2000/svg" xmlns:xlink="http://www.w3.org/1999/xlink"><linearGradient id="a" gradientUnits="userSpaceOnUse" x1="27" x2="27" y1="0" y2="54"><stop offset="0" stop-color="#91ff87" stop-opacity=".3"/><stop offset="1" stop-color="#a378ff" stop-opacity=".3"/></linearGradient><linearGradient id="b" gradientUnits="userSpaceOnUse" x1="22.9561" x2="22.9561" y1="13" y2="30.8082"><stop offset="0" stop-color="#14ff00"/><stop offset="1" stop-color="#14ff00" stop-opacity=".77"/></linearGradient><linearGradient id="c" gradientUnits="userSpaceOnUse" x1="23.3875" x2="23.3875" y1="27.8757" y2="40.9999"><stop offset="0" stop-color="#14ff00"/><stop offset="1" stop-color="#14ff00" stop-opacity=".49"/></linearGradient><linearGradient id="d" gradientUnits="userSpaceOnUse" x1="34.3761" x2="34.3761" y1="15.9213" y2="27.9941"><stop offset="0" stop-color="#14ff00"/><stop offset="1" stop-color="#14ff00" stop-opacity=".67"/></linearGradient><linearGradient id="e" gradientUnits="userSpaceOnUse" x1="35.7131" x2="35.7131" y1="27.7733" y2="38.3414"><stop offset="0" stop-color="#14ff00"/><stop offset=".892378" stop-color="#14ff00" stop-opacity=".66"/></linearGradient><rect fill="url(#a)" height="54" rx="16" width="54"/><path d="m22.5 13c-3.5853 0-6.5 2.9178-6.5 6.5068 0 3.5206 2.7505 6.3699 6.3358 6.4932.1095-.0137.2189-.0137.301 0h.0685.0273c3.5032-.1233 6.2537-2.9726 6.2674-6.4932 0-3.589-2.9147-6.5068-6.5-6.5068z" fill="url(#b)"/><path d="m30.2159 29.9616c-3.9631-2.6155-10.4261-2.6155-14.4176 0-1.804 1.1952-2.7983 2.8123-2.7983 4.5419s.9943 3.3326 2.7841 4.5138c1.9886 1.3218 4.6023 1.9827 7.2159 1.9827s5.2273-.6609 7.2159-1.9827c1.7898-1.1952 2.7841-2.7983 2.7841-4.5419-.0142-1.7296-.9943-3.3326-2.7841-4.5138z" fill="url(#c)"/><path d="m37.9829 20.5739c.2172 2.7024-1.6563 5.0705-4.2494 5.3909-.0136 0-.0136 0-.0272 0h-.0407c-.0815 0-.1629 0-.2308.0279-1.3169.0696-2.5252-.3622-3.4348-1.1562 1.3984-1.2816 2.1994-3.2039 2.0364-5.2934-.095-1.1284-.4751-2.1592-1.0453-3.0368.5159-.2647 1.1132-.4318 1.7242-.4876 2.6609-.2368 5.0368 1.797 5.2676 4.5552z" fill="url(#d)"/><path d="m40.985 33.6398c-.1098 1.3374-.9612 2.4956-2.3892 3.2815-1.3731.7584-3.1033 1.1169-4.8197 1.0755.9887-.8962 1.5654-2.013 1.6752-3.1988.1373-1.7097-.6728-3.3505-2.2931-4.6603-.92-.7308-1.991-1.3099-3.1582-1.7373 3.0346-.8824 6.8519-.2896 9.2 1.6132 1.2632 1.0203 1.9086 2.3026 1.785 3.6262z" fill="url(#e)"/></svg>

<svg width="54" height="54" viewBox="0 0 54 54" fill="none" xmlns="http://www.w3.org/2000/svg">
<g id="multi-signer-light">
<rect id="Rectangle 1286" width="54" height="54" rx="16" fill="url(#paint0_linear_188_1582)"/>
<g id="Multi-Signer">
<g id="profile-2user">
<path id="Vector" d="M22.5 13C18.9147 13 16 15.9178 16 19.5068C16 23.0274 18.7505 25.8767 22.3358 26C22.4453 25.9863 22.5547 25.9863 22.6368 26C22.6642 26 22.6779 26 22.7053 26C22.7189 26 22.7189 26 22.7326 26C26.2358 25.8767 28.9863 23.0274 29 19.5068C29 15.9178 26.0853 13 22.5 13Z" fill="url(#paint1_linear_188_1582)"/>
<path id="Vector_2" d="M30.2159 29.9616C26.2528 27.3461 19.7898 27.3461 15.7983 29.9616C13.9943 31.1568 13 32.7739 13 34.5035C13 36.2331 13.9943 37.8361 15.7841 39.0173C17.7727 40.3391 20.3864 41 23 41C25.6136 41 28.2273 40.3391 30.2159 39.0173C32.0057 37.8221 33 36.219 33 34.4754C32.9858 32.7458 32.0057 31.1428 30.2159 29.9616Z" fill="url(#paint2_linear_188_1582)"/>
<path id="Vector_3" d="M37.9829 20.5739C38.2001 23.2763 36.3266 25.6444 33.7335 25.9648C33.7199 25.9648 33.7199 25.9648 33.7063 25.9648H33.6656C33.5841 25.9648 33.5027 25.9648 33.4348 25.9927C32.1179 26.0623 30.9096 25.6305 30 24.8365C31.3984 23.5549 32.1994 21.6326 32.0364 19.5431C31.9414 18.4147 31.5613 17.3839 30.9911 16.5063C31.507 16.2416 32.1043 16.0745 32.7153 16.0187C35.3762 15.7819 37.7521 17.8157 37.9829 20.5739Z" fill="url(#paint3_linear_188_1582)"/>
<path id="Vector_4" d="M40.985 33.6398C40.8752 34.9772 40.0238 36.1354 38.5958 36.9213C37.2227 37.6797 35.4925 38.0382 33.7761 37.9968C34.7648 37.1006 35.3415 35.9838 35.4513 34.798C35.5886 33.0883 34.7785 31.4475 33.1582 30.1377C32.2382 29.4069 31.1672 28.8278 30 28.4004C33.0346 27.518 36.8519 28.1108 39.2 30.0136C40.4632 31.0339 41.1086 32.3162 40.985 33.6398Z" fill="url(#paint4_linear_188_1582)"/>
</g>
</g>
</g>
<defs>
<linearGradient id="paint0_linear_188_1582" x1="27" y1="0" x2="27" y2="54" gradientUnits="userSpaceOnUse">
<stop stop-color="#91FF87" stop-opacity="0.3"/>
<stop offset="1" stop-color="#A378FF" stop-opacity="0.3"/>
</linearGradient>
<linearGradient id="paint1_linear_188_1582" x1="22.9561" y1="13" x2="22.9561" y2="30.8082" gradientUnits="userSpaceOnUse">
<stop stop-color="#14FF00"/>
<stop offset="1" stop-color="#14FF00" stop-opacity="0.77"/>
</linearGradient>
<linearGradient id="paint2_linear_188_1582" x1="23.3875" y1="27.8757" x2="23.3875" y2="40.9999" gradientUnits="userSpaceOnUse">
<stop stop-color="#14FF00"/>
<stop offset="1" stop-color="#14FF00" stop-opacity="0.49"/>
</linearGradient>
<linearGradient id="paint3_linear_188_1582" x1="34.3761" y1="15.9213" x2="34.3761" y2="27.9941" gradientUnits="userSpaceOnUse">
<stop stop-color="#14FF00"/>
<stop offset="1" stop-color="#14FF00" stop-opacity="0.67"/>
</linearGradient>
<linearGradient id="paint4_linear_188_1582" x1="35.7131" y1="27.7733" x2="35.7131" y2="38.3414" gradientUnits="userSpaceOnUse">
<stop stop-color="#14FF00"/>
<stop offset="0.892378" stop-color="#14FF00" stop-opacity="0.66"/>
</linearGradient>
</defs>
</svg>
